X:1
T:Tell It Out with Gladness
T:Tell It Out with Gladness
T:John Robson Sweney
T:Frances Jane (Fanny) Crosby, 1889
T:Public Domain Courtesy of the Cyber Hymnal™
T:Public Domain Courtesy of the Cyber Hymnal™
C:John Robson Sweney
Z:Public Domain
Z:Courtesy of the Cyber Hymnal™
%%score ( 1 2 ) ( 3 4 )
L:1/8
Q:1/4=102
M:4/4
K:Ab
V:1 treble 
V:2 treble 
V:3 bass 
V:4 bass 
V:1
 EE | [CA][CA][CA][CA] [CA]2 [EA][EB] | [Ec]3 [Fd] [Ec][EB][EG][EA] | %3
w: 1.~Are you|hap- py in the Lord, Tell it|out with glad- ness; Are you|
w: 2.~Are you|walk- ing in the light, Tell it|out with glad- ness; Is your|
w: 3.~Do you|love the place of prayer, Tell it|out with glad- ness; Do you|
 [EB][EB][EB][EB] [EB]2 [EB][Ec] | [Gd]3 [Ac] [EB][EA][Ec][Ed] | [Ee][Ee][Ee][Ec] [Gd]2 [EB][Ec] | %6
w: trust- ing in His Word, Tell it|out with glad- ness; If a|Sav- ior’s love you feel, Can your|
w: hope of glor- y bright, Tell it|out with glad- ness; Have you|per- fect peace with- in, Are you|
w: find a bless- ing there, Tell it|out with glad- ness; While your|thoughts on Je- sus dwell, Does your|
 [Ed][Ed][Ed][EB] [Ec]2 [Ec][DB] | [CA][CA][EG][DF] [CE]2 [EA][FB] | %8
w: soul its power con- ceal? To the|world your joy re- veal, Tell it|
w: try- ing still to win Con- stant|vic- tory o- ver sin, Tell it|
w: soul with rap- ture swell? Can you|say that all is well? Tell it|
 [Ec]3 [EB] [EB]!fermata![EA] ||"^Refrain" cd | (z2 z2) x8 | [Ae]3 [Ac] [Ac][GB][GB][Ac] | %12
w: out with glad- ness.||||
w: out with glad- ness.|Tell it||out, tell it out with glad-|
w: out with glad- ness.||||
 [Bd]6 [GB][Ac] | [Bd]3 [Ac] [GB][EA][Ec][DB] | [CA]4- [CA][CA][EB][_Gc] | [Fd]6 [Ae][Af] | %16
w: ||||
w: ness, Tell it|out, tell it out with glad-|ness, * Tell the world|the joy you|
w: ||||
 [Ae]2 [Ac][Ad] [Ac]3 [GB] | [EB] [EA]4- [EA] |] %18
w: ||
w: feel, Tell it out, tell|it out *|
w: ||
V:2
 EE | x8 | x8 | x8 | x8 | x8 | x8 | x8 | x6 || x2 | (e4 .AA A4) cd | x8 | x8 | x8 | x8 | x8 | x8 | %17
 x6 |] %18
V:3
 E,E, | E,E,E,E, E,2 [C,A,][E,G,] | A,3 A, [E,A,][E,G,][E,B,][E,C] | %3
 [E,G,][E,G,][E,G,][E,G,] [E,G,]2 [E,G,][E,A,] | [E,B,]3 [E,E] [A,D][A,C]A,[A,B,] | %5
 [A,C][A,C][A,C]A, [E,B,]2 [E,G,][E,A,] | [E,B,][E,B,][E,B,][E,G,] [A,,A,]2 [A,,E,][A,,E,] | %7
 [A,,E,][A,,A,][D,A,][D,A,] [A,,A,]2 [C,A,][D,A,] | [E,A,]3 [E,D] [A,,D][A,,C] || A,B, | %10
 (z2 A,2 A,)[A,B,] x6 | [A,C]3 [A,E] [E,E][E,E] z2 | z2 ([E,E][E,E]) E4- | %13
 [E,E]3 [A,E] [E,D][A,C][A,,A,][A,,E,] | ([A,,E,][A,,E,][A,,E,][A,,E,] [A,,E,]2) [E,G,]A, | %15
 ([D,A,][D,A,][D,A,][D,A,] [D,A,]2) [C,A,][D,D] | [E,C]2 [E,E][E,F] [E,E]3 [E,D] | %17
 [A,,D] [A,,C]4- [A,,C] |] %18
V:4
 E,E, | E,E,E,E, E,2 x2 | A,3 A, x4 | x8 | x6 A, x | x3 A, x4 | x8 | x8 | x6 || x2 | C4 .A,A, x6 | %11
 x8 | x4 E,2 E,E, | x8 | x8 | x8 | x8 | x6 |] %18

